X:1
T:Title
%%score { ( 1 4 5 ) | ( 2 3 6 ) }
L:1/8
Q:1/4=100
M:9/8
K:G
V:1 treble nm="Grand Piano"
V:4 treble 
V:5 treble 
V:2 treble 
V:3 treble 
V:6 treble 
V:1
 G G2 A | B3- B2 [Bd] [Ac]2 [GB] | [GB]3 A2 F F2 G | A3- A2 [DEc] [DB]2 [CDA] | %4
w: C.~C.~Case * *||||
 [DG]3 z2 [B,DG] [DG]2 [DFA] | [DGB]3- [DGB]2 [DBd] [DAc]2 [DGB] | [GB]3 A2 F F2 G | %7
w: |||
 A3- A2 [DEc] [DB]2 [CDA] |[M:5/8] [B,DG]-[B,DG]- [B,DG]3 |[M:12/8] z3 z c2- c6 | z3 z B2- B6 | %11
w: ||||
 F F2 .G3 D D2 .D3 | e [Bd]2 ^c [Bd]2- [Bd]- [G,Bd]2- [G,Bd] [GB]2 | z3 z c2- c6 | z3 z B2- B6 | %15
w: ||||
 z3 z A2- A6 |[M:8/8] [DEc] [DB]2 [CDA] [B,DG]4- | [B,DG]4 z4 |] %18
w: |||
V:2
 [G,B,] [G,B,]2 [G,CG] | [G,DG]3- [G,DG]2[K:bass] [G,D] [G,D]2 [G,D] | %2
 z3 F2 [D,A,D] [D,A,D]2 [D,B,D] | [D,CD]3- [D,CD]2 D, D,2 D, | z3 D2 G,, B,,2 D, | %5
 G,3- G,2 G, G,2 G, | z3 F2 [D,A,D] [D,A,D]2 [D,B,D] | [D,CD]3- [D,CD]2 D, D,2 D, | %8
[M:5/8] G,,-G,,- G,,3 |[M:12/8][K:treble] z3 z A2- A6[K:bass] | z3 z G2- G6[K:bass] | %11
 z3[K:treble] z F2- F6[K:bass] | z [D,D]2- [D,D] z z z6 | z3 z A2- A6[K:bass] | %14
 z3 z G2- G6[K:bass] | z3[K:treble] z F2- F6[K:bass] |[M:8/8] D, D,2 D, G,,4- | G,,4 z4 |] %18
V:3
 x4 | x5[K:bass] x4 | [D,D]6 z3 | x9 | G,,6 z3 | x9 | D,6 z3 | x9 |[M:5/8] x5 | %9
[M:12/8][K:treble] BBA .G3 D,[K:bass] D,2 D, D,2 | AAG .F3 G,,[K:bass] G,,2 G,, G,,2 | %11
 D D2[K:treble] .D3 D,[K:bass] D,2 .D,3 | .c3 _B G,,2- G,, G,,2- G,, [G,,G,]2 | %13
 BBA .G3 D,[K:bass] D,2 D, D,2 | AAG .F3 G,,[K:bass] G,,2 G,, G,,2 | %15
 D D2[K:treble] .D3 D,[K:bass] D,2 D, D,2 |[M:8/8] x8 | x8 |] %18
V:4
 x4 | x9 | x9 | x9 | B,6 z3 | x9 | D6 z3 | x9 |[M:5/8] x5 |[M:12/8] ddc .B3 A, A,2 A, A,2 | %10
 ccB .A3 G, G,2 G, G,2 | z3 z A2- A6 | z3 z D2- D z z z3 | ddc .B3 A, A,2 A, A,2 | %14
 ccB .A3 G, G,2 G, G,2 | F F2 .G3 C C2 C C2 |[M:8/8] x8 | x8 |] %18
V:5
 x4 | x9 | x9 | x9 | x9 | x9 | x9 | x9 |[M:5/8] x5 |[M:12/8] x12 | x12 | z6 z3 z D2- | D3 z3 z6 | %13
 x12 | x12 | x12 |[M:8/8] x8 | x8 |] %18
V:6
 x4 | x5[K:bass] x4 | x9 | x9 | x9 | x9 | x9 | x9 |[M:5/8] x5 |[M:12/8][K:treble] x7[K:bass] x5 | %10
 x7[K:bass] x5 | z6[K:treble] z3[K:bass] z D,2- | D,3 z3 z6 | x7[K:bass] x5 | x7[K:bass] x5 | %15
 x3[K:treble] x4[K:bass] x5 |[M:8/8] x8 | x8 |] %18

